X:6561
T:Green Grows The Rushes O'. JC.017
M:C|
L:1/8
Q:100
S:John Clare,Poet,Helpston. (1793-1864)
R:Air
O:England
A:Northamptonshire
N:first crotchet is a Q in MS.
Z:P Headford
K:G
"qu in MS"G2G>A BG G2|A2 A>B cAAA|c>dec B>cdB|ABcA GE E2:|!
|:g2g>a gd d2|e2 ga beef|g>a ge d>e dB|AcBA GE E2:|]
W:Song text exists. See Deacon.
